styles/2/Numix/16/places/red-folder-copy.svg

<?xml version="1.0" encoding="UTF-8" standalone="no"?>
<svg
   xmlns:dc="http://purl.org/dc/elements/1.1/"
   xmlns:cc="http://creativecommons.org/ns#"
   xmlns:rdf="http://www.w3.org/1999/02/22-rdf-syntax-ns#"
   xmlns:svg="http://www.w3.org/2000/svg"
   xmlns="http://www.w3.org/2000/svg"
   xmlns:sodipodi="http://sodipodi.sourceforge.net/DTD/sodipodi-0.dtd"
   xmlns:inkscape="http://www.inkscape.org/namespaces/inkscape"
   width="16"
   height="16"
   viewBox="0 0 12.8 12.8"
   id="svg2"
   version="1.1"
   inkscape:version="0.91 r"
   sodipodi:docname="red-folder-copy.svg">
  <metadata
     id="metadata26">
    <rdf:RDF>
      <cc:Work
         rdf:about="">
        <dc:format>image/svg+xml</dc:format>
        <dc:type
           rdf:resource="http://purl.org/dc/dcmitype/StillImage" />
        <dc:title />
      </cc:Work>
    </rdf:RDF>
  </metadata>
  <defs
     id="defs24" />
  <sodipodi:namedview
     pagecolor="#ffffff"
     bordercolor="#666666"
     borderopacity="1"
     objecttolerance="10"
     gridtolerance="10"
     guidetolerance="10"
     inkscape:pageopacity="0"
     inkscape:pageshadow="2"
     inkscape:window-width="1280"
     inkscape:window-height="969"
     id="namedview22"
     showgrid="true"
     inkscape:zoom="20.538732"
     inkscape:cx="10.063056"
     inkscape:cy="8.4561778"
     inkscape:window-x="0"
     inkscape:window-y="0"
     inkscape:window-maximized="1"
     inkscape:current-layer="svg2">
    <inkscape:grid
       type="xygrid"
       id="grid3003"
       empspacing="5"
       visible="true"
       enabled="true"
       snapvisiblegridlinesonly="true" />
  </sodipodi:namedview>
  <path
     sodipodi:nodetypes="ccccsssccccccc"
     inkscape:connector-curvature="0"
     id="path3782-4-0"
     d="m 1.6,1.6000002 c -0.397554,0 -0.8000001,0.3756943 -0.8000001,0.8 l 0,-10e-8 C 0.4278578,2.4000001 -6.97e-4,2.7338381 0,3.2 l 0,3.9999999 c 0,0.481784 0.385551,0.8 0.7999999,0.8 l 6.4000001,0 c 0.4301157,0 0.8008358,-0.318218 0.7999998,-0.8 L 7.9999998,4 C 7.9994948,3.517585 7.6206577,3.2 7.2,3.2 l -0.8,0 0,-0.7999998 c 0,-0.4458592 -0.3821312,-0.8 -0.8,-0.8 z"
     style="font-size:medium;font-style:normal;font-variant:normal;font-weight:normal;font-stretch:normal;text-indent:0;text-align:start;text-decoration:none;line-height:normal;letter-spacing:normal;word-spacing:normal;text-transform:none;direction:ltr;block-progression:tb;writing-mode:lr-tb;text-anchor:start;baseline-shift:baseline;color:#000000;fill:#ef5350;fill-opacity:1;fill-rule:nonzero;stroke:none;stroke-width:0.81800002;marker:none;visibility:visible;display:inline;overflow:visible;enable-background:accumulate;font-family:Sans;-inkscape-font-specification:Sans" />
  <path
     style="font-size:medium;font-style:normal;font-variant:normal;font-weight:normal;font-stretch:normal;text-indent:0;text-align:start;text-decoration:none;line-height:normal;letter-spacing:normal;word-spacing:normal;text-transform:none;direction:ltr;block-progression:tb;writing-mode:lr-tb;text-anchor:start;baseline-shift:baseline;color:#000000;fill:#000000;fill-opacity:0.10196079;fill-rule:nonzero;stroke:none;stroke-width:0.81800002000000005;marker:none;visibility:visible;display:inline;overflow:visible;enable-background:accumulate;font-family:Sans;-inkscape-font-specification:Sans"
     d="M 2 2 C 1.5030575 2 1 2.4631151 1 3 C 0.53482238 3 -0.00087125 3.4172976 0 4 L 0 9 C 0 9.60223 0.47014987 10 1 10 L 9 10 C 9.2688224 10 9.504575 9.8934716 9.6875 9.71875 C 9.7869306 9.628343 9.8515324 9.5361222 9.90625 9.40625 C 9.9576422 9.2842706 10.000261 9.1505569 10 9 L 10 5 C 9.9996844 4.6984906 9.8718631 4.4511503 9.6875 4.28125 C 9.5033067 4.1066274 9.2629111 4 9 4 L 8 4 L 8 3 C 8 2.442676 7.5223361 2 7 2 L 2 2 z "
     id="path3782-4"
     transform="scale(0.8,0.8)" />
  <path
     style="font-size:medium;font-style:normal;font-variant:normal;font-weight:normal;font-stretch:normal;text-indent:0;text-align:start;text-decoration:none;line-height:normal;letter-spacing:normal;word-spacing:normal;text-transform:none;direction:ltr;block-progression:tb;writing-mode:lr-tb;text-anchor:start;baseline-shift:baseline;color:#000000;fill:#000000;fill-opacity:0.32038838;fill-rule:nonzero;stroke:none;stroke-width:0.81800002;marker:none;visibility:visible;display:inline;overflow:visible;enable-background:accumulate;font-family:Sans;-inkscape-font-specification:Sans"
     d="m 1.6,1.6000003 c -0.397554,0 -0.8,0.3704921 -0.8,0.8 l 0,-10e-8 c -0.3721421,0 -0.8006971,0.333838 -0.8000001,0.7999999 L -1e-7,7.2 C -1e-7,7.681784 0.3761199,8 0.8,8 L 7.2,8 C 7.6332418,8 8.0008358,7.681782 7.9999998,7.2 l 0,-3.1999999 C 7.9994948,3.5175851 7.6195708,3.2302234 7.2,3.2000001 l -0.8,0 0,-0.7999998 c 0,-0.4458592 -0.3821311,-0.8 -0.8,-0.8 z m -0.8,1.5999998 4,-10e-8 0,0.8 2.4,1e-7 L 7.2,7.2 0.8,7.2 z"
     id="path3768-0"
     inkscape:connector-curvature="0"
     sodipodi:nodetypes="scccsssccscsssccccccc" />
  <path
     sodipodi:nodetypes="ccccsssccccccc"
     inkscape:connector-curvature="0"
     id="path3782"
     d="m 6.4,5.6000003 c -0.397554,0 -0.8,0.3756943 -0.8,0.8 l 0,-1e-7 c -0.3721421,0 -0.8006971,0.333838 -0.8000001,0.7999999 l 0,3.9999999 c 0,0.481784 0.385551,0.8 0.8000001,0.8 l 6.4,0 c 0.430116,0 0.800836,-0.318218 0.8,-0.8 l 0,-3.1999999 c -5.05e-4,-0.482415 -0.379342,-0.8 -0.8,-0.8 l -0.8,0 0,-0.7999998 c 0,-0.4458592 -0.382131,-0.8 -0.8,-0.8 z"
     style="font-size:medium;font-style:normal;font-variant:normal;font-weight:normal;font-stretch:normal;text-indent:0;text-align:start;text-decoration:none;line-height:normal;letter-spacing:normal;word-spacing:normal;text-transform:none;direction:ltr;block-progression:tb;writing-mode:lr-tb;text-anchor:start;baseline-shift:baseline;color:#000000;fill:#ef5350;fill-opacity:1;fill-rule:nonzero;stroke:none;stroke-width:0.81800002;marker:none;visibility:visible;display:inline;overflow:visible;enable-background:accumulate;font-family:Sans;-inkscape-font-specification:Sans" />
  <path
     style="font-size:medium;font-style:normal;font-variant:normal;font-weight:normal;font-stretch:normal;text-indent:0;text-align:start;text-decoration:none;line-height:normal;letter-spacing:normal;word-spacing:normal;text-transform:none;direction:ltr;block-progression:tb;writing-mode:lr-tb;text-anchor:start;baseline-shift:baseline;color:#000000;fill:#000000;fill-opacity:0.32038838;fill-rule:nonzero;stroke:none;stroke-width:0.81800002;marker:none;visibility:visible;display:inline;overflow:visible;enable-background:accumulate;font-family:Sans;-inkscape-font-specification:Sans"
     d="m 6.4,5.6000003 c -0.397554,0 -0.8,0.3704921 -0.8,0.8 l 0,-1e-7 c -0.3721421,0 -0.8006971,0.333838 -0.8000001,0.7999999 l 0,3.9999999 c 0,0.481784 0.37612,0.8 0.8000001,0.8 l 6.4,0 c 0.433242,0 0.800836,-0.318218 0.8,-0.8 l 0,-3.1999999 c -5.05e-4,-0.482415 -0.380429,-0.7697767 -0.8,-0.8 l -0.8,0 0,-0.7999998 c 0,-0.4458592 -0.382131,-0.8 -0.8,-0.8 z M 5.6,7.2000001 9.6,7.2 9.6,8 12,8.0000001 12,11.2 l -6.4,0 z"
     id="path3768"
     inkscape:connector-curvature="0"
     sodipodi:nodetypes="scccsssccscsssccccccc" />
</svg>

<svg xmlns="http://www.w3.org/2000/svg" width="16" height="16" viewBox="0 0 12.8 12.8">
 <path d="m 1.6 1.6 c -0.398 0 -0.8 0.376 -0.8 0.8 l 0 0 c -0.372 0 -0.801 0.334 -0.8 0.8 l 0 4 c 0 0.482 0.386 0.8 0.8 0.8 l 6.4 0 c 0.43 0 0.801 -0.318 0.8 -0.8 l 0 -3.2 c -0.001 -0.482 -0.379 -0.8 -0.8 -0.8 l -0.8 0 0 -0.8 c 0 -0.446 -0.382 -0.8 -0.8 -0.8 z" style="visibility:visible;fill:#ef5350;fill-opacity:1;stroke:none;display:inline;color:#000;fill-rule:nonzero"/>
 <path d="m 2 2 c -0.497 0 -1 0.463 -1 1 c -0.465 0 -1 0.417 -1 1 l 0 5 c 0 0.602 0.47 1 1 1 l 8 0 c 0.269 0 0.505 -0.107 0.688 -0.281 c 0.099 -0.09 0.164 -0.183 0.219 -0.313 c 0.051 -0.122 0.094 -0.256 0.094 -0.406 l 0 -4 c 0 -0.302 -0.128 -0.549 -0.313 -0.719 c -0.184 -0.175 -0.425 -0.281 -0.688 -0.281 l -1 0 l 0 -1 c 0 -0.557 -0.478 -1 -1 -1 l -5 0 z" transform="scale(0.8,0.8)" style="visibility:visible;fill:#000;fill-opacity:0.102;stroke:none;display:inline;color:#000;fill-rule:nonzero"/>
 <path d="m 1.6 1.6 c -0.398 0 -0.8 0.37 -0.8 0.8 l 0 0 c -0.372 0 -0.801 0.334 -0.8 0.8 l 0 4 c 0 0.482 0.376 0.8 0.8 0.8 l 6.4 0 c 0.433 0 0.801 -0.318 0.8 -0.8 l 0 -3.2 c -0.001 -0.482 -0.38 -0.77 -0.8 -0.8 l -0.8 0 0 -0.8 c 0 -0.446 -0.382 -0.8 -0.8 -0.8 z m -0.8 1.6 4 0 0 0.8 2.4 0 l 0 3.2 -6.4 0 z" style="visibility:visible;fill:#000;fill-opacity:0.32;stroke:none;display:inline;color:#000;fill-rule:nonzero"/>
 <path d="m 6.4 5.6 c -0.398 0 -0.8 0.376 -0.8 0.8 l 0 0 c -0.372 0 -0.801 0.334 -0.8 0.8 l 0 4 c 0 0.482 0.386 0.8 0.8 0.8 l 6.4 0 c 0.43 0 0.801 -0.318 0.8 -0.8 l 0 -3.2 c -0.001 -0.482 -0.379 -0.8 -0.8 -0.8 l -0.8 0 0 -0.8 c 0 -0.446 -0.382 -0.8 -0.8 -0.8 z" style="visibility:visible;fill:#ef5350;fill-opacity:1;stroke:none;display:inline;color:#000;fill-rule:nonzero"/>
 <path d="m 6.4 5.6 c -0.398 0 -0.8 0.37 -0.8 0.8 l 0 0 c -0.372 0 -0.801 0.334 -0.8 0.8 l 0 4 c 0 0.482 0.376 0.8 0.8 0.8 l 6.4 0 c 0.433 0 0.801 -0.318 0.8 -0.8 l 0 -3.2 c -0.001 -0.482 -0.38 -0.77 -0.8 -0.8 l -0.8 0 0 -0.8 c 0 -0.446 -0.382 -0.8 -0.8 -0.8 z m -0.8 1.6 4 0 0 0.8 2.4 0 0 3.2 l -6.4 0 z" style="visibility:visible;fill:#000;fill-opacity:0.32;stroke:none;display:inline;color:#000;fill-rule:nonzero"/>
</svg>
